apps/webapp/app/assets/images/logo.svg

<svg width="751" height="131" viewBox="0 0 751 131" fill="none" xmlns="http://www.w3.org/2000/svg">
<path d="M195.022 16.2694H135.445H137.799V32.5133H157.858V102.411H174.84V32.5133H195.022V16.2694Z" fill="url(#paint0_linear_228_1439)"/>
<path d="M211.265 51.4645V40.8814H195.391V102.411H211.265V73C211.265 60.0787 221.726 56.3868 229.971 57.3713V39.6508C222.218 39.6508 214.465 43.0964 211.265 51.4645Z" fill="url(#paint1_linear_228_1439)"/>
<path d="M246.954 33.4978C252.368 33.4978 256.799 29.0676 256.799 23.7761C256.799 18.4845 252.368 13.9313 246.954 13.9313C241.662 13.9313 237.232 18.4845 237.232 23.7761C237.232 29.0676 241.662 33.4978 246.954 33.4978ZM239.078 102.411H254.953V40.8814H239.078V102.411Z" fill="url(#paint2_linear_228_1439)"/>
<path d="M315.253 40.8814V48.5111C310.946 42.7273 304.301 39.1586 295.563 39.1586C278.089 39.1586 264.922 53.4335 264.922 70.6618C264.922 88.0133 278.089 102.165 295.563 102.165C304.301 102.165 310.946 98.5964 315.253 92.8126V99.4579C315.253 109.18 309.1 114.594 299.132 114.594C289.657 114.594 285.596 110.779 283.011 105.98L269.475 113.733C274.889 123.701 285.473 128.746 298.64 128.746C314.884 128.746 330.759 119.64 330.759 99.4579V40.8814H315.253ZM298.025 87.5211C288.057 87.5211 280.796 80.5066 280.796 70.6618C280.796 60.9401 288.057 53.9257 298.025 53.9257C307.992 53.9257 315.253 60.9401 315.253 70.6618C315.253 80.5066 307.992 87.5211 298.025 87.5211Z" fill="url(#paint3_linear_228_1439)"/>
<path d="M390.936 40.8814V48.5111C386.629 42.7273 379.983 39.1586 371.246 39.1586C353.772 39.1586 340.604 53.4335 340.604 70.6618C340.604 88.0133 353.772 102.165 371.246 102.165C379.983 102.165 386.629 98.5964 390.936 92.8126V99.4579C390.936 109.18 384.783 114.594 374.815 114.594C365.339 114.594 361.278 110.779 358.694 105.98L345.157 113.733C350.572 123.701 361.155 128.746 374.323 128.746C390.566 128.746 406.441 119.64 406.441 99.4579V40.8814H390.936ZM373.707 87.5211C363.74 87.5211 356.479 80.5066 356.479 70.6618C356.479 60.9401 363.74 53.9257 373.707 53.9257C383.675 53.9257 390.936 60.9401 390.936 70.6618C390.936 80.5066 383.675 87.5211 373.707 87.5211Z" fill="url(#paint4_linear_228_1439)"/>
<path d="M432.9 78.1685H479.294C479.663 76.0765 479.909 73.9845 479.909 71.6464C479.909 53.5566 466.988 39.1586 448.775 39.1586C429.454 39.1586 416.287 53.3105 416.287 71.6464C416.287 89.9822 429.331 104.134 450.005 104.134C461.819 104.134 471.049 99.3348 476.832 90.9667L464.034 83.5832C461.327 87.1519 456.404 89.7361 450.251 89.7361C441.883 89.7361 435.115 86.2904 432.9 78.1685ZM432.654 65.8625C434.5 57.9867 440.284 53.4335 448.775 53.4335C455.42 53.4335 462.065 57.0022 464.034 65.8625H432.654Z" fill="url(#paint5_linear_228_1439)"/>
<path d="M505.199 51.4645V40.8814H489.324V102.411H505.199V73C505.199 60.0787 515.659 56.3868 523.904 57.3713V39.6508C516.151 39.6508 508.398 43.0964 505.199 51.4645Z" fill="url(#paint6_linear_228_1439)"/>
<path d="M529.934 104.011C535.717 104.011 540.394 99.3347 540.394 93.5509C540.394 87.7671 535.717 83.0909 529.934 83.0909C524.15 83.0909 519.474 87.7671 519.474 93.5509C519.474 99.3347 524.15 104.011 529.934 104.011Z" fill="url(#paint7_linear_228_1439)"/>
<path d="M596.632 16.2694V48.1419C592.202 42.4811 585.68 39.1586 576.696 39.1586C560.206 39.1586 546.67 53.3104 546.67 71.6463C546.67 89.9822 560.206 104.134 576.696 104.134C585.68 104.134 592.202 100.811 596.632 95.1507V102.411H612.507V16.2694L596.632 16.2694ZM579.65 88.9977C569.805 88.9977 562.544 81.9833 562.544 71.6463C562.544 61.3093 569.805 54.2948 579.65 54.2948C589.371 54.2948 596.632 61.3093 596.632 71.6463C596.632 81.9833 589.371 88.9977 579.65 88.9977Z" fill="url(#paint8_linear_228_1439)"/>
<path d="M637.98 78.1685H684.374C684.743 76.0765 684.989 73.9845 684.989 71.6464C684.989 53.5566 672.068 39.1586 653.855 39.1586C634.534 39.1586 621.367 53.3105 621.367 71.6464C621.367 89.9823 634.411 104.134 655.085 104.134C666.899 104.134 676.129 99.3348 681.912 90.9667L669.114 83.5832C666.407 87.1519 661.484 89.7362 655.331 89.7362C646.963 89.7362 640.195 86.2905 637.98 78.1685ZM637.734 65.8625C639.58 57.9867 645.364 53.4335 653.855 53.4335C660.5 53.4335 667.145 57.0022 669.114 65.8625H637.734Z" fill="url(#paint9_linear_228_1439)"/>
<path d="M732.859 40.8814L717.846 83.9523L702.956 40.8814H685.481L708.863 102.411H726.952L750.334 40.8814H732.859Z" fill="url(#paint10_linear_228_1439)"/>
<path fill-rule="evenodd" clip-rule="evenodd" d="M35.664 42.3995L59.4114 1.26865L118.264 103.206H0.558823L24.3062 62.0734L41.1046 71.7723L34.157 83.8065H84.6658L59.4114 40.0656L52.4638 52.0998L35.664 42.3995Z" fill="url(#paint11_linear_228_1439)"/>
<defs>
<linearGradient id="paint0_linear_228_1439" x1="329.675" y1="150.096" x2="329.675" y2="13.9313" gradientUnits="userSpaceOnUse">
<stop stop-color="#41FF54"/>
<stop offset="1" stop-color="#E7FF52"/>
</linearGradient>
<linearGradient id="paint1_linear_228_1439" x1="329.675" y1="150.096" x2="329.675" y2="13.9313" gradientUnits="userSpaceOnUse">
<stop stop-color="#41FF54"/>
<stop offset="1" stop-color="#E7FF52"/>
</linearGradient>
<linearGradient id="paint2_linear_228_1439" x1="329.675" y1="150.096" x2="329.675" y2="13.9313" gradientUnits="userSpaceOnUse">
<stop stop-color="#41FF54"/>
<stop offset="1" stop-color="#E7FF52"/>
</linearGradient>
<linearGradient id="paint3_linear_228_1439" x1="329.675" y1="150.096" x2="329.675" y2="13.9313" gradientUnits="userSpaceOnUse">
<stop stop-color="#41FF54"/>
<stop offset="1" stop-color="#E7FF52"/>
</linearGradient>
<linearGradient id="paint4_linear_228_1439" x1="329.675" y1="150.096" x2="329.675" y2="13.9313" gradientUnits="userSpaceOnUse">
<stop stop-color="#41FF54"/>
<stop offset="1" stop-color="#E7FF52"/>
</linearGradient>
<linearGradient id="paint5_linear_228_1439" x1="329.675" y1="150.096" x2="329.675" y2="13.9313" gradientUnits="userSpaceOnUse">
<stop stop-color="#41FF54"/>
<stop offset="1" stop-color="#E7FF52"/>
</linearGradient>
<linearGradient id="paint6_linear_228_1439" x1="329.675" y1="150.096" x2="329.675" y2="13.9313" gradientUnits="userSpaceOnUse">
<stop stop-color="#41FF54"/>
<stop offset="1" stop-color="#E7FF52"/>
</linearGradient>
<linearGradient id="paint7_linear_228_1439" x1="634.904" y1="139.733" x2="651.44" y2="25.9754" gradientUnits="userSpaceOnUse">
<stop stop-color="#2563EB"/>
<stop offset="1" stop-color="#A855F7"/>
</linearGradient>
<linearGradient id="paint8_linear_228_1439" x1="634.904" y1="139.733" x2="651.44" y2="25.9754" gradientUnits="userSpaceOnUse">
<stop stop-color="#2563EB"/>
<stop offset="1" stop-color="#A855F7"/>
</linearGradient>
<linearGradient id="paint9_linear_228_1439" x1="634.904" y1="139.733" x2="651.44" y2="25.9754" gradientUnits="userSpaceOnUse">
<stop stop-color="#2563EB"/>
<stop offset="1" stop-color="#A855F7"/>
</linearGradient>
<linearGradient id="paint10_linear_228_1439" x1="634.904" y1="139.733" x2="651.44" y2="25.9754" gradientUnits="userSpaceOnUse">
<stop stop-color="#2563EB"/>
<stop offset="1" stop-color="#A855F7"/>
</linearGradient>
<linearGradient id="paint11_linear_228_1439" x1="95.8594" y1="103.206" x2="94.7605" y2="31.2414" gradientUnits="userSpaceOnUse">
<stop stop-color="#41FF54"/>
<stop offset="1" stop-color="#E7FF52"/>
</linearGradient>
</defs>
</svg>

<svg
  xmlns="http://www.w3.org/2000/svg"
  width="751"
  height="131"
  fill="none"
  viewBox="0 0 751 131"
>
  <path
    fill="url(#paint0_linear_228_1439)"
    d="M195.022 16.27h-59.577 2.354v16.243h20.059v69.898h16.982V32.513h20.182V16.27z"
  ></path>
  <path
    fill="url(#paint1_linear_228_1439)"
    d="M211.265 51.465V40.88h-15.874v61.53h15.874V73c0-12.921 10.461-16.613 18.706-15.629v-17.72c-7.753 0-15.506 3.445-18.706 11.813z"
  ></path>
  <path
    fill="url(#paint2_linear_228_1439)"
    d="M246.954 33.498c5.414 0 9.845-4.43 9.845-9.722 0-5.291-4.431-9.845-9.845-9.845-5.292 0-9.722 4.554-9.722 9.845 0 5.292 4.43 9.722 9.722 9.722zm-7.876 68.913h15.875v-61.53h-15.875v61.53z"
  ></path>
  <path
    fill="url(#paint3_linear_228_1439)"
    d="M315.253 40.881v7.63c-4.307-5.784-10.952-9.352-19.69-9.352-17.474 0-30.641 14.275-30.641 31.503 0 17.351 13.167 31.503 30.641 31.503 8.738 0 15.383-3.569 19.69-9.352v6.645c0 9.722-6.153 15.136-16.121 15.136-9.475 0-13.536-3.815-16.121-8.614l-13.536 7.753c5.414 9.968 15.998 15.013 29.165 15.013 16.244 0 32.119-9.106 32.119-29.288V40.88h-15.506zm-17.228 46.64c-9.968 0-17.229-7.014-17.229-16.86 0-9.72 7.261-16.735 17.229-16.735 9.967 0 17.228 7.014 17.228 16.736 0 9.845-7.261 16.86-17.228 16.86z"
  ></path>
  <path
    fill="url(#paint4_linear_228_1439)"
    d="M390.936 40.881v7.63c-4.307-5.784-10.953-9.352-19.69-9.352-17.474 0-30.642 14.275-30.642 31.503 0 17.351 13.168 31.503 30.642 31.503 8.737 0 15.383-3.569 19.69-9.352v6.645c0 9.722-6.153 15.136-16.121 15.136-9.476 0-13.537-3.815-16.121-8.614l-13.537 7.753c5.415 9.968 15.998 15.013 29.166 15.013 16.243 0 32.118-9.106 32.118-29.288V40.88h-15.505zm-17.229 46.64c-9.967 0-17.228-7.014-17.228-16.86 0-9.72 7.261-16.735 17.228-16.735 9.968 0 17.229 7.014 17.229 16.736 0 9.845-7.261 16.86-17.229 16.86z"
  ></path>
  <path
    fill="url(#paint5_linear_228_1439)"
    d="M432.9 78.168h46.394c.369-2.092.615-4.184.615-6.522 0-18.09-12.921-32.487-31.134-32.487-19.321 0-32.488 14.151-32.488 32.487 0 18.336 13.044 32.488 33.718 32.488 11.814 0 21.044-4.8 26.827-13.167l-12.798-7.384c-2.707 3.569-7.63 6.153-13.783 6.153-8.368 0-15.136-3.446-17.351-11.568zm-.246-12.306c1.846-7.875 7.63-12.428 16.121-12.428 6.645 0 13.29 3.568 15.259 12.428h-31.38z"
  ></path>
  <path
    fill="url(#paint6_linear_228_1439)"
    d="M505.199 51.465V40.88h-15.875v61.53h15.875V73c0-12.921 10.46-16.613 18.705-15.629v-17.72c-7.753 0-15.506 3.445-18.705 11.813z"
  ></path>
  <path
    fill="url(#paint7_linear_228_1439)"
    d="M529.934 104.011c5.783 0 10.46-4.676 10.46-10.46 0-5.784-4.677-10.46-10.46-10.46a10.451 10.451 0 00-10.46 10.46c0 5.784 4.676 10.46 10.46 10.46z"
  ></path>
  <path
    fill="url(#paint8_linear_228_1439)"
    d="M596.632 16.27v31.872c-4.43-5.66-10.952-8.983-19.936-8.983-16.49 0-30.026 14.151-30.026 32.487 0 18.336 13.536 32.488 30.026 32.488 8.984 0 15.506-3.323 19.936-8.983v7.26h15.875V16.269h-15.875zM579.65 88.997c-9.845 0-17.106-7.015-17.106-17.352s7.261-17.351 17.106-17.351c9.721 0 16.982 7.014 16.982 17.351s-7.261 17.352-16.982 17.352z"
  ></path>
  <path
    fill="url(#paint9_linear_228_1439)"
    d="M637.98 78.168h46.394c.369-2.092.615-4.184.615-6.522 0-18.09-12.921-32.487-31.134-32.487-19.321 0-32.488 14.151-32.488 32.487 0 18.336 13.044 32.488 33.718 32.488 11.814 0 21.044-4.8 26.827-13.167l-12.798-7.384c-2.707 3.569-7.63 6.153-13.783 6.153-8.368 0-15.136-3.446-17.351-11.568zm-.246-12.306c1.846-7.875 7.63-12.428 16.121-12.428 6.645 0 13.29 3.568 15.259 12.428h-31.38z"
  ></path>
  <path
    fill="url(#paint10_linear_228_1439)"
    d="M732.859 40.881l-15.013 43.071-14.89-43.07h-17.475l23.382 61.529h18.089l23.382-61.53h-17.475z"
  ></path>
  <path
    fill="url(#paint11_linear_228_1439)"
    fillRule="evenodd"
    d="M35.664 42.4L59.411 1.269l58.853 101.937H.559l23.747-41.133 16.799 9.7-6.948 12.034h50.509L59.41 40.066 52.464 52.1l-16.8-9.7z"
    clipRule="evenodd"
  ></path>
  <defs>
    <linearGradient
      id="paint0_linear_228_1439"
      x1="329.675"
      x2="329.675"
      y1="150.096"
      y2="13.931"
      gradientUnits="userSpaceOnUse"
    >
      <stop stopColor="#41FF54"></stop>
      <stop offset="1" stopColor="#E7FF52"></stop>
    </linearGradient>
    <linearGradient
      id="paint1_linear_228_1439"
      x1="329.675"
      x2="329.675"
      y1="150.096"
      y2="13.931"
      gradientUnits="userSpaceOnUse"
    >
      <stop stopColor="#41FF54"></stop>
      <stop offset="1" stopColor="#E7FF52"></stop>
    </linearGradient>
    <linearGradient
      id="paint2_linear_228_1439"
      x1="329.675"
      x2="329.675"
      y1="150.096"
      y2="13.931"
      gradientUnits="userSpaceOnUse"
    >
      <stop stopColor="#41FF54"></stop>
      <stop offset="1" stopColor="#E7FF52"></stop>
    </linearGradient>
    <linearGradient
      id="paint3_linear_228_1439"
      x1="329.675"
      x2="329.675"
      y1="150.096"
      y2="13.931"
      gradientUnits="userSpaceOnUse"
    >
      <stop stopColor="#41FF54"></stop>
      <stop offset="1" stopColor="#E7FF52"></stop>
    </linearGradient>
    <linearGradient
      id="paint4_linear_228_1439"
      x1="329.675"
      x2="329.675"
      y1="150.096"
      y2="13.931"
      gradientUnits="userSpaceOnUse"
    >
      <stop stopColor="#41FF54"></stop>
      <stop offset="1" stopColor="#E7FF52"></stop>
    </linearGradient>
    <linearGradient
      id="paint5_linear_228_1439"
      x1="329.675"
      x2="329.675"
      y1="150.096"
      y2="13.931"
      gradientUnits="userSpaceOnUse"
    >
      <stop stopColor="#41FF54"></stop>
      <stop offset="1" stopColor="#E7FF52"></stop>
    </linearGradient>
    <linearGradient
      id="paint6_linear_228_1439"
      x1="329.675"
      x2="329.675"
      y1="150.096"
      y2="13.931"
      gradientUnits="userSpaceOnUse"
    >
      <stop stopColor="#41FF54"></stop>
      <stop offset="1" stopColor="#E7FF52"></stop>
    </linearGradient>
    <linearGradient
      id="paint7_linear_228_1439"
      x1="634.904"
      x2="651.44"
      y1="139.733"
      y2="25.975"
      gradientUnits="userSpaceOnUse"
    >
      <stop stopColor="#2563EB"></stop>
      <stop offset="1" stopColor="#A855F7"></stop>
    </linearGradient>
    <linearGradient
      id="paint8_linear_228_1439"
      x1="634.904"
      x2="651.44"
      y1="139.733"
      y2="25.975"
      gradientUnits="userSpaceOnUse"
    >
      <stop stopColor="#2563EB"></stop>
      <stop offset="1" stopColor="#A855F7"></stop>
    </linearGradient>
    <linearGradient
      id="paint9_linear_228_1439"
      x1="634.904"
      x2="651.44"
      y1="139.733"
      y2="25.975"
      gradientUnits="userSpaceOnUse"
    >
      <stop stopColor="#2563EB"></stop>
      <stop offset="1" stopColor="#A855F7"></stop>
    </linearGradient>
    <linearGradient
      id="paint10_linear_228_1439"
      x1="634.904"
      x2="651.44"
      y1="139.733"
      y2="25.975"
      gradientUnits="userSpaceOnUse"
    >
      <stop stopColor="#2563EB"></stop>
      <stop offset="1" stopColor="#A855F7"></stop>
    </linearGradient>
    <linearGradient
      id="paint11_linear_228_1439"
      x1="95.859"
      x2="94.76"
      y1="103.206"
      y2="31.241"
      gradientUnits="userSpaceOnUse"
    >
      <stop stopColor="#41FF54"></stop>
      <stop offset="1" stopColor="#E7FF52"></stop>
    </linearGradient>
  </defs>
</svg>
